logos/ktor.svg

<?xml version="1.0" encoding="UTF-8"?>
<svg width="512px" height="243px" viewBox="0 0 512 243" version="1.1" xmlns="http://www.w3.org/2000/svg" xmlns:xlink="http://www.w3.org/1999/xlink" preserveAspectRatio="xMidYMid">
    <title>Ktor</title>
    <defs>
        <linearGradient x1="23.9648148%" y1="23.9648148%" x2="74.6407407%" y2="74.6407407%" id="ktorLinearGradient-1">
            <stop stop-color="#00AFFF" offset="29.6%"></stop>
            <stop stop-color="#5282FF" offset="69.4%"></stop>
            <stop stop-color="#945DFF" offset="100%"></stop>
        </linearGradient>
        <linearGradient x1="26.2055556%" y1="26.2055556%" x2="74.1166667%" y2="74.1166667%" id="ktorLinearGradient-2">
            <stop stop-color="#C757BC" offset="10.8%"></stop>
            <stop stop-color="#CD5CA9" offset="17.3%"></stop>
            <stop stop-color="#E8744F" offset="49.2%"></stop>
            <stop stop-color="#F88316" offset="71.6%"></stop>
            <stop stop-color="#FF8900" offset="82.3%"></stop>
        </linearGradient>
    </defs>
    <g>
        <g>
            <polygon fill="url(#ktorLinearGradient-1)" points="161.666667 80.8333333 121.417655 40.584321 80.8333333 0 38.1533333 42.68 0 80.8333333 80.8333333 161.666667"></polygon>
            <polygon fill="url(#ktorLinearGradient-2)" points="80.8333333 161.666667 121.082345 201.915679 161.666667 242.5 204.346667 199.82 242.5 161.666667 161.666667 80.8333333"></polygon>
            <polygon fill="#000000" points="161.666667 80.8333333 80.8333333 80.8333333 80.8333333 161.666667 161.666667 161.666667"></polygon>
        </g>
        <path d="M312.036395,160.522633 L312.036395,138.230349 L319.428419,129.539795 L341.089122,160.522633 L359.804131,160.522633 L330.700877,119.525446 L357.889177,87.5775512 L340.518173,87.5775512 L312.966082,120.33387 L312.036395,120.33387 L312.036395,87.5775512 L296.423712,87.5775512 L296.423712,160.522633 L312.036395,160.522633 L312.036395,160.522633 Z M371.278695,91.574196 L371.278695,105.367926 L362.386034,105.367926 L362.386034,116.544383 L371.278695,116.544383 L371.278695,145.511215 C371.278695,156.323883 376.760818,160.72479 390.61518,160.72479 C393.145836,160.728619 395.671884,160.508816 398.163836,160.067895 L398.163836,149.199649 C396.688276,149.374585 395.203384,149.458954 393.717506,149.452281 C388.599173,149.452281 386.325481,147.128063 386.325481,142.125941 L386.325481,116.544383 L398.163836,116.544383 L398.163836,105.372978 L386.325481,105.372978 L386.325481,91.574196 L371.278695,91.574196 L371.278695,91.574196 Z M435.593854,161.684742 C453.116438,161.684742 463.666367,150.872075 463.666367,132.667384 C463.666367,114.624377 452.964858,103.655078 435.593854,103.655078 C418.222849,103.655078 407.521341,114.669851 407.521341,132.667384 C407.521341,150.816496 418.066217,161.684742 435.593854,161.684742 Z M435.593854,150.058599 C427.529827,150.058599 422.977391,143.692262 422.977391,132.667384 C422.977391,121.753664 427.575301,115.331748 435.593854,115.331748 C443.551775,115.331748 448.205264,121.748611 448.205264,132.667384 C448.205264,143.687209 443.607354,150.058599 435.593854,150.058599 Z M475.964513,160.517581 L491.011299,160.517581 L491.011299,129.383162 C491.011299,121.551558 496.645002,116.746489 504.865661,116.746489 C507.295985,116.746489 510.812628,117.150701 512,117.554913 L512,104.615081 C510.711575,104.210869 508.175145,103.958237 506.108612,103.958237 C498.87322,103.958237 492.97678,108.151935 491.476143,113.709848 L490.546456,113.709848 L490.546456,104.867713 L475.969566,104.867713 L475.969566,160.522633 L475.964513,160.517581 Z" fill="#27282C"></path>
    </g>
</svg>

<svg preserveAspectRatio="xMidYMid" viewBox="0 0 512 243" xmlns="http://www.w3.org/2000/svg">
  <defs>
    <linearGradient id="ktor_svg__a" x1="23.965%" x2="74.641%" y1="23.965%" y2="74.641%">
      <stop offset="29.6%" stop-color="#00AFFF"/>
      <stop offset="69.4%" stop-color="#5282FF"/>
      <stop offset="100%" stop-color="#945DFF"/>
    </linearGradient>
    <linearGradient id="ktor_svg__b" x1="26.206%" x2="74.117%" y1="26.206%" y2="74.117%">
      <stop offset="10.8%" stop-color="#C757BC"/>
      <stop offset="17.3%" stop-color="#CD5CA9"/>
      <stop offset="49.2%" stop-color="#E8744F"/>
      <stop offset="71.6%" stop-color="#F88316"/>
      <stop offset="82.3%" stop-color="#FF8900"/>
    </linearGradient>
  </defs>
  <path fill="url(#ktor_svg__a)" d="m161.667 80.833-40.25-40.249L80.834 0l-42.68 42.68L0 80.833l80.833 80.834z"/>
  <path fill="url(#ktor_svg__b)" d="m80.833 161.667 40.25 40.249 40.584 40.584 42.68-42.68 38.153-38.153-80.833-80.834z"/>
  <path d="M161.667 80.833H80.833v80.834h80.834z"/>
  <path fill="#27282C" d="M312.036 160.523V138.23l7.392-8.69 21.661 30.983h18.715l-29.103-40.998 27.188-31.947h-17.37l-27.553 32.756h-.93V87.578h-15.612v72.945h15.612Zm59.243-68.949v13.794h-8.893v11.176h8.893v28.967c0 10.813 5.482 15.214 19.336 15.214 2.53.004 5.057-.216 7.549-.657V149.2a36.38 36.38 0 0 1-4.446.252c-5.119 0-7.393-2.324-7.393-7.326v-25.582h11.839v-11.171h-11.839V91.574H371.28Zm64.315 70.11c17.522 0 28.072-10.812 28.072-29.017 0-18.043-10.701-29.012-28.072-29.012s-28.073 11.015-28.073 29.012c0 18.15 10.545 29.018 28.073 29.018Zm0-11.625c-8.064 0-12.617-6.367-12.617-17.392 0-10.913 4.598-17.335 12.617-17.335 7.958 0 12.611 6.417 12.611 17.335 0 11.02-4.598 17.392-12.611 17.392Zm40.37 10.459h15.047v-31.135c0-7.831 5.634-12.637 13.855-12.637 2.43 0 5.947.405 7.134.809v-12.94c-1.288-.404-3.825-.657-5.891-.657-7.236 0-13.132 4.194-14.633 9.752h-.93v-8.842H475.97v55.655l-.005-.005Z"/>
</svg>
